src/next/cmd/lc_glueescapedirectionright.svg

<svg height="24" width="24" xmlns="http://www.w3.org/2000/svg" xmlns:xlink="http://www.w3.org/1999/xlink"><linearGradient id="a" gradientTransform="matrix(.5833334 0 0 .4444446 6.666668 -4.444444)" gradientUnits="userSpaceOnUse" x1="36.571423" x2="112" y1="144.99995" y2="27.999998"><stop offset="0" stop-color="#fff"/><stop offset=".42597079" stop-color="#fff"/><stop offset=".5892781" stop-color="#f1f1f1"/><stop offset=".80219781" stop-color="#eaeaea"/><stop offset="1" stop-color="#dfdfdf"/></linearGradient><linearGradient id="b" gradientTransform="matrix(.06477709 0 0 .06505961 7.795886 -31.751767)" gradientUnits="userSpaceOnUse" x1="399.77466" x2="399.77466" y1="1164.6696" y2="549.06134"><stop offset="0" stop-color="#a7a7a9"/><stop offset=".5" stop-color="#7d7d83"/><stop offset="1" stop-color="#aaaab1"/></linearGradient><linearGradient id="c" gradientTransform="matrix(.7098215 0 0 .4598215 -.948662 .642857)" gradientUnits="userSpaceOnUse" x1="77.5625" x2="108.625" y1="32" y2="32"><stop offset="0" stop-color="#fff"/><stop offset="1" stop-color="#fff" stop-opacity="0"/></linearGradient><linearGradient id="d" gradientTransform="matrix(.99999997 0 0 .57322316 -14.852818 59.545942)" gradientUnits="userSpaceOnUse" x1="58.852818" x2="151.32086" y1="-16.142143" y2="-19.120222"><stop offset="0" stop-color="#06f"/><stop offset="1" stop-color="#80b3ff"/></linearGradient><linearGradient id="e" gradientTransform="matrix(.99999999 0 0 .50000003 64.142139 -28.573589)" gradientUnits="userSpaceOnUse" x1="-21.213205" x2="25.455845" y1="-80.024391" y2="-104.6518"><stop offset="0" stop-color="#0968ef"/><stop offset="1" stop-color="#aecffc"/></linearGradient><g transform="matrix(.25 0 0 .25 0 2)"><rect fill="url(#b)" height="80" rx="4.144231" width="80" x="8"/><rect fill="url(#a)" fill-rule="evenodd" height="72" rx="1.5" ry="1.444445" width="72" x="12" y="4"/><path d="m64 4c-7.583425 4.335233-33.575415 66.309995-38.004046 72h19.320452c1.082101-5.447495 23.343355-67.654296 28-72z" fill="url(#c)" fill-rule="evenodd"/><g transform="matrix(-.48613591 .48613591 .48613591 .48613591 60.552606 -20.400361)"><path d="m44.883804 46.449421h52.36364v5.818183h-52.36364z" fill="url(#d)"/><path d="m23.176695-73.974716h52.363636v5.818183h-52.363636z" fill="url(#e)" transform="rotate(90)"/></g><path d="m56 36.828124c0-.459092.522968-.828124 1.171876-.828124l28.156248-.0236-4.125-6.093752 2.101564-2.01546 12.695312 10.125-12.6875 10.140624-2.101564-2.117188 4.117188-5.984376h-.742188l-27.41406-.031248c-.648908 0-1.171876-.369032-1.171876-.828124z" fill="#bf0000"/></g></svg>

<?xml version="1.0" encoding="UTF-8" standalone="no"?>
<!-- Created with Inkscape (http://www.inkscape.org/) -->

<svg
   xmlns:dc="http://purl.org/dc/elements/1.1/"
   xmlns:cc="http://creativecommons.org/ns#"
   xmlns:rdf="http://www.w3.org/1999/02/22-rdf-syntax-ns#"
   xmlns:svg="http://www.w3.org/2000/svg"
   xmlns="http://www.w3.org/2000/svg"
   xmlns:xlink="http://www.w3.org/1999/xlink"
   xmlns:sodipodi="http://sodipodi.sourceforge.net/DTD/sodipodi-0.dtd"
   xmlns:inkscape="http://www.inkscape.org/namespaces/inkscape"
   width="24"
   height="24"
   id="svg3408"
   sodipodi:version="0.32"
   inkscape:version="0.92.4 (unknown)"
   version="1.0"
   sodipodi:docname="lc_glueescapedirectionright.svg"
   inkscape:output_extension="org.inkscape.output.svgz.inkscape"
   inkscape:export-filename="/home/rizmut/Dokumen/Rizmut/Github/libreoffice-style-karasa-jaga/build/next/cmd/lc_glueescapedirectionright.png"
   inkscape:export-xdpi="96"
   inkscape:export-ydpi="96">
  <defs
     id="defs3410">
    <linearGradient
       inkscape:collect="always"
       id="linearGradient3310">
      <stop
         style="stop-color:#ffffff;stop-opacity:1;"
         offset="0"
         id="stop3312" />
      <stop
         style="stop-color:#ffffff;stop-opacity:0;"
         offset="1"
         id="stop3314" />
    </linearGradient>
    <linearGradient
       id="linearGradient3369">
      <stop
         style="stop-color:#ffffff;stop-opacity:1;"
         offset="0"
         id="stop3372" />
      <stop
         id="stop3374"
         offset="0.42597079"
         style="stop-color:#ffffff;stop-opacity:1;" />
      <stop
         id="stop3376"
         offset="0.5892781"
         style="stop-color:#f1f1f1;stop-opacity:1;" />
      <stop
         style="stop-color:#eaeaea;stop-opacity:1;"
         offset="0.80219781"
         id="stop3378" />
      <stop
         style="stop-color:#dfdfdf;stop-opacity:1;"
         offset="1"
         id="stop3384" />
    </linearGradient>
    <linearGradient
       id="linearGradient7422">
      <stop
         id="stop7424"
         offset="0"
         style="stop-color:#b4b4b6;stop-opacity:1;" />
      <stop
         style="stop-color:#9c9ca1;stop-opacity:1;"
         offset="0.5"
         id="stop5348" />
      <stop
         style="stop-color:#cdcdd1;stop-opacity:1;"
         offset="1"
         id="stop7426" />
    </linearGradient>
    <linearGradient
       inkscape:collect="always"
       xlink:href="#linearGradient3369"
       id="linearGradient5655"
       gradientUnits="userSpaceOnUse"
       gradientTransform="matrix(0.5833334,0,0,0.4444446,6.666668,-4.4444438)"
       x1="36.571423"
       y1="144.99995"
       x2="112"
       y2="27.999998" />
    <linearGradient
       inkscape:collect="always"
       xlink:href="#linearGradient7422-3"
       id="linearGradient5658"
       gradientUnits="userSpaceOnUse"
       gradientTransform="matrix(0.06477709,0,0,0.06505961,7.7958862,-31.751767)"
       x1="399.77466"
       y1="1164.6696"
       x2="399.77466"
       y2="549.06134" />
    <linearGradient
       id="linearGradient2399">
      <stop
         style="stop-color:#0968ef;stop-opacity:1;"
         offset="0"
         id="stop2401" />
      <stop
         style="stop-color:#aecffc;stop-opacity:1;"
         offset="1"
         id="stop2403" />
    </linearGradient>
    <linearGradient
       inkscape:collect="always"
       xlink:href="#linearGradient3310"
       id="linearGradient3316"
       x1="77.5625"
       y1="32"
       x2="108.625"
       y2="32"
       gradientUnits="userSpaceOnUse"
       gradientTransform="matrix(0.7098215,0,0,0.4598215,-0.948662,0.642857)" />
    <linearGradient
       inkscape:collect="always"
       xlink:href="#linearGradient2222"
       id="linearGradient1102"
       x1="58.852818"
       y1="-16.142143"
       x2="151.32086"
       y2="-19.120222"
       gradientUnits="userSpaceOnUse"
       gradientTransform="matrix(0.99999997,0,0,0.57322316,-14.852818,59.545942)" />
    <linearGradient
       inkscape:collect="always"
       id="linearGradient2222">
      <stop
         style="stop-color:#0066ff;stop-opacity:1"
         offset="0"
         id="stop2224" />
      <stop
         style="stop-color:#80b3ff;stop-opacity:1"
         offset="1"
         id="stop2226" />
    </linearGradient>
    <linearGradient
       inkscape:collect="always"
       xlink:href="#linearGradient2399"
       id="linearGradient1100"
       x1="-21.213205"
       y1="-80.024391"
       x2="25.455845"
       y2="-104.6518"
       gradientUnits="userSpaceOnUse"
       gradientTransform="matrix(0.99999999,0,0,0.50000003,64.142139,-28.573589)" />
    <linearGradient
       id="linearGradient7422-3">
      <stop
         id="stop7424-6"
         offset="0"
         style="stop-color:#a7a7a9;stop-opacity:1" />
      <stop
         style="stop-color:#7d7d83;stop-opacity:1"
         offset="0.5"
         id="stop5348-7" />
      <stop
         style="stop-color:#aaaab1;stop-opacity:1"
         offset="1"
         id="stop7426-5" />
    </linearGradient>
  </defs>
  <sodipodi:namedview
     id="base"
     pagecolor="#ffffff"
     bordercolor="#666666"
     borderopacity="1.0"
     inkscape:pageopacity="0.0"
     inkscape:pageshadow="2"
     inkscape:zoom="15.687501"
     inkscape:cx="10.2176"
     inkscape:cy="9.8139557"
     inkscape:document-units="px"
     inkscape:current-layer="g57"
     height="88px"
     width="88px"
     showborder="true"
     inkscape:showpageshadow="false"
     showgrid="true"
     inkscape:window-width="1366"
     inkscape:window-height="714"
     inkscape:window-x="0"
     inkscape:window-y="28"
     showguides="true"
     inkscape:guide-bbox="true"
     inkscape:window-maximized="1"
     inkscape:snap-global="false">
    <inkscape:grid
       id="GridFromPre046Settings"
       type="xygrid"
       originx="0"
       originy="0"
       spacingx="0.5"
       spacingy="0.5"
       color="#0000ff"
       empcolor="#0000ff"
       opacity="0.2"
       empopacity="0.4"
       empspacing="2" />
  </sodipodi:namedview>
  <metadata
     id="metadata3413">
    <rdf:RDF>
      <cc:Work
         rdf:about="">
        <dc:format>image/svg+xml</dc:format>
        <dc:type
           rdf:resource="http://purl.org/dc/dcmitype/StillImage" />
        <dc:title></dc:title>
      </cc:Work>
    </rdf:RDF>
  </metadata>
  <g
     inkscape:label="Livello 1"
     inkscape:groupmode="layer"
     id="layer1"
     transform="translate(0,-64)">
    <g
       id="g57"
       transform="matrix(0.25,0,0,0.25,0,66)">
      <rect
         inkscape:export-ydpi="90"
         inkscape:export-xdpi="90"
         inkscape:export-filename="/home/pinheiro/Desktop/mock2.png"
         style="fill:url(#linearGradient5658);fill-opacity:1;fill-rule:nonzero;stroke:none;stroke-width:2;stroke-linecap:round;stroke-linejoin:round;stroke-miterlimit:4;stroke-dasharray:none;stroke-dashoffset:4;stroke-opacity:1"
         id="rect2894"
         width="80"
         height="80"
         x="8"
         y="0"
         inkscape:r_cx="true"
         inkscape:r_cy="true"
         ry="4.1442308"
         rx="4.1442308" />
      <rect
         ry="1.4444445"
         rx="1.4999998"
         y="4"
         x="12"
         height="72"
         width="72"
         id="rect4026"
         style="fill:url(#linearGradient5655);fill-opacity:1;fill-rule:evenodd;stroke:none;stroke-width:8;stroke-linecap:round;stroke-linejoin:round;stroke-miterlimit:4;stroke-dasharray:none;stroke-opacity:1" />
      <path
         sodipodi:nodetypes="ccccc"
         inkscape:connector-curvature="0"
         id="path2336"
         d="M 64,4 C 56.416575,8.335233 30.424585,70.309995 25.995954,76 h 19.320452 c 1.082101,-5.447495 23.343355,-67.654296 28,-72 z"
         style="fill:url(#linearGradient3316);fill-opacity:1;fill-rule:evenodd;stroke:none;stroke-width:1px;stroke-linecap:butt;stroke-linejoin:miter;stroke-opacity:1" />
      <g
         transform="matrix(-0.48613591,0.48613591,0.48613591,0.48613591,60.552606,-20.400361)"
         id="g1639">
        <rect
           style="fill:url(#linearGradient1102);fill-opacity:1;stroke:none;stroke-width:0.72957456"
           id="rect8491-3"
           width="52.36364"
           height="5.8181834"
           x="44.883804"
           y="46.449421" />
        <rect
           y="-73.974716"
           x="23.176695"
           height="5.8181825"
           width="52.363636"
           id="rect248"
           style="fill:url(#linearGradient1100);fill-opacity:1;stroke:none;stroke-width:0.68138546"
           transform="rotate(90)" />
      </g>
      <path
         style="fill:#bf0000;fill-opacity:1;stroke:none;stroke-width:0.48367444"
         d="M 56,36.828124 C 56,36.369032 56.522968,36 57.171876,36 l 28.156248,-0.0236 -4.125,-6.093752 2.101564,-2.01546 L 96,37.992188 83.3125,48.132812 81.210936,46.015624 85.328124,40.031248 H 84.585936 L 57.171876,40 C 56.522968,40 56,39.630968 56,39.171876 Z"
         id="rect3366"
         inkscape:connector-curvature="0"
         sodipodi:nodetypes="sccccccccccss" />
    </g>
  </g>
</svg>
